X: 34
T: Yemon O nock
%R: waltz
B: "The Hibernian Muse" p.21 #1
F: http://imslp.org/wiki/The_Hibernian_Muse_%28Various%29
Z: 2015 John Chambers <jc:trillian.mit.edu>
P: No. XXXIV.
M: 3/4
L: 1/8
Q: "Slow"
K: G
% - - - - - - - - - - - - - - - - - - - - - - - - - - - - -
V: 1
G2 |\
G2 d2 TcB | c2 e2 dB | A2 B2 TAG | G4 G2 |\
GB d2 cB | Ec e2 dB | A2 B2 TAG | G4 :|
|: g2 |\
Tg2 (fe)(ag) | {g}Tf2 (ed)(gf) | {f}Te3 dBd | Te3 f g2 |\
GB d2 cB | c2 e2 dB | A2 B2 TAG | G4 :|
% - - - - - - - - - - - - - - - - - - - - - - - - - - - - -
V: 2 clef=bass middle=d
z2 | g2 f2 d2 | e2 c2 g2 | f2 d2 c2 | B2 G2 z2 |\
g2 G2 g2 | e2 c2 g2 | c2 d2 D2 | G4 :|
|: z2 |\
g2 d2 e2 | d2 c2 B2 | c2 c'2 g2 | c4 B2 |\
G2 g2 G2 | e2 c2 g2 | c2 d2 D2 | G4 :|
